X: 16
T:Mary Custy's Hornpipe #1
M:C|
L:1/8
S:Sharon Shannon
R:hornpipe/highland
Z:Stoney
K:D
F>G|A>BA>FA2 d>e|f>ef>a f2 e>d|B>BB>d A>FE>D|(E2 E)>E E2 D>F|
A>BA>FA2 d>e|f>ef>a f2 e>d|B>Ad>B A>FE>F |1D2 D>E D2 D>F:|2D2 D>E D2||
|:d>e|f>aa>b a2 f>e|(d2d)>ef2 f>g|f>df>a b>af>a |e2 e>f e>Ad>e|
f>aa>b a2 f>e|(d>Bd>e d2 c>B|A>Fd>B A>FE>F |(D2 D)>E D2 :|
